austria/municipalities/70522.svg

<?xml version="1.0" encoding="UTF-8"?>
<!DOCTYPE svg PUBLIC "-//W3C//DTD SVG 1.1//EN" "http://www.w3.org/Graphics/SVG/1.1/DTD/svg11.dtd">
<svg xmlns="http://www.w3.org/2000/svg" version="1.1" width="166px" height="192px" style="shape-rendering:geometricPrecision; text-rendering:geometricPrecision; image-rendering:optimizeQuality; fill-rule:evenodd; clip-rule:evenodd" xmlns:xlink="http://www.w3.org/1999/xlink">
<g><path style="opacity:1" fill="#0e0c0a" d="M -0.5,-0.5 C 54.8333,-0.5 110.167,-0.5 165.5,-0.5C 165.5,39.5 165.5,79.5 165.5,119.5C 157.067,159.599 132.734,183.599 92.5,191.5C 85.5,191.5 78.5,191.5 71.5,191.5C 30.9556,182.955 6.95561,158.289 -0.5,117.5C -0.5,78.1667 -0.5,38.8333 -0.5,-0.5 Z"/></g>
<g><path style="opacity:1" fill="#fefdfd" d="M 160.5,4.5 C 157.097,6.89981 154.43,9.89981 152.5,13.5C 150.833,14.5 149.5,15.8333 148.5,17.5C 143.46,21.539 139.127,26.2056 135.5,31.5C 130.127,35.8714 125.461,40.8714 121.5,46.5C 117.434,49.5628 114.101,53.2294 111.5,57.5C 109.833,58.5 108.5,59.8333 107.5,61.5C 102.46,65.539 98.1266,70.2056 94.5,75.5C 89.1275,79.8714 84.4608,84.8714 80.5,90.5C 76.4342,93.5628 73.1009,97.2294 70.5,101.5C 68.8333,102.5 67.5,103.833 66.5,105.5C 61.46,109.539 57.1266,114.206 53.5,119.5C 48.1275,123.871 43.4608,128.871 39.5,134.5C 35.4342,137.563 32.1009,141.229 29.5,145.5C 27.8333,146.5 26.5,147.833 25.5,149.5C 23.2034,151.294 21.0367,153.294 19,155.5C 11.9106,146.317 7.24394,135.984 5,124.5C 3.54113,84.1969 3.04113,43.8636 3.5,3.5C 56.0027,3.16774 108.336,3.50108 160.5,4.5 Z"/></g>
<g><path style="opacity:1" fill="#301711" d="M 160.5,4.5 C 161.833,22.1541 162.5,40.1541 162.5,58.5C 162.5,76.6698 162.167,94.6698 161.5,112.5C 161.667,76.8318 161.5,41.1651 161,5.5C 158.297,8.37141 155.464,11.0381 152.5,13.5C 154.43,9.89981 157.097,6.89981 160.5,4.5 Z"/></g>
<g><path style="opacity:1" fill="#d63023" d="M 161.5,112.5 C 158.411,148.086 140.078,171.919 106.5,184C 75.3603,192.59 48.1936,185.757 25,163.5C 23.4851,161.323 21.9851,159.156 20.5,157C 22.3994,154.611 24.0661,152.111 25.5,149.5C 26.5,147.833 27.8333,146.5 29.5,145.5C 33.5658,142.437 36.8991,138.771 39.5,134.5C 41.0174,134.489 42.1841,133.823 43,132.5C 46.7365,128.273 50.2365,123.94 53.5,119.5C 55.0174,119.489 56.1841,118.823 57,117.5C 60.4044,113.606 63.5711,109.606 66.5,105.5C 67.5,103.833 68.8333,102.5 70.5,101.5C 74.5658,98.4372 77.8991,94.7706 80.5,90.5C 82.0174,90.4894 83.1841,89.8228 84,88.5C 87.7365,84.2733 91.2365,79.94 94.5,75.5C 96.0174,75.4894 97.1841,74.8228 98,73.5C 101.404,69.6061 104.571,65.6061 107.5,61.5C 108.5,59.8333 109.833,58.5 111.5,57.5C 115.566,54.4372 118.899,50.7706 121.5,46.5C 123.017,46.4894 124.184,45.8228 125,44.5C 128.737,40.2733 132.237,35.94 135.5,31.5C 137.017,31.4894 138.184,30.8228 139,29.5C 142.404,25.6061 145.571,21.6061 148.5,17.5C 149.5,15.8333 150.833,14.5 152.5,13.5C 155.464,11.0381 158.297,8.37141 161,5.5C 161.5,41.1651 161.667,76.8318 161.5,112.5 Z"/></g>
<g><path style="opacity:1" fill="#3f2119" d="M 148.5,17.5 C 145.571,21.6061 142.404,25.6061 139,29.5C 138.184,30.8228 137.017,31.4894 135.5,31.5C 139.127,26.2056 143.46,21.539 148.5,17.5 Z"/></g>
<g><path style="opacity:1" fill="#3d231c" d="M 135.5,31.5 C 132.237,35.94 128.737,40.2733 125,44.5C 124.184,45.8228 123.017,46.4894 121.5,46.5C 125.461,40.8714 130.127,35.8714 135.5,31.5 Z"/></g>
<g><path style="opacity:1" fill="#2f1e18" d="M 121.5,46.5 C 118.899,50.7706 115.566,54.4372 111.5,57.5C 114.101,53.2294 117.434,49.5628 121.5,46.5 Z"/></g>
<g><path style="opacity:1" fill="#161613" d="M 51.5,9.5 C 54.1564,14.1206 57.3231,18.4539 61,22.5C 61.4828,23.448 61.6495,24.448 61.5,25.5C 59.5542,25.1928 57.8875,25.1928 56.5,25.5C 58.5943,31.3638 61.9277,36.3638 66.5,40.5C 64.1667,41.1667 61.8333,41.8333 59.5,42.5C 63.1462,49.1449 68.1462,54.4782 74.5,58.5C 70.6239,60.043 66.6239,61.3763 62.5,62.5C 65.716,69.3807 70.3826,75.0473 76.5,79.5C 73.6446,81.3415 70.4779,82.3415 67,82.5C 63.4728,81.9091 59.9728,81.2425 56.5,80.5C 56.9701,85.0196 57.6368,89.5196 58.5,94C 58.1667,95.1667 57.8333,96.3333 57.5,97.5C 53.1496,96.8917 48.8162,96.5584 44.5,96.5C 46.1461,91.2903 47.1461,85.957 47.5,80.5C 43.8463,81.1638 40.1796,81.8305 36.5,82.5C 33.2014,82.262 30.2014,81.262 27.5,79.5C 33.6174,75.0473 38.284,69.3807 41.5,62.5C 37.3761,61.3763 33.3761,60.043 29.5,58.5C 35.8538,54.4782 40.8538,49.1449 44.5,42.5C 42.1667,41.8333 39.8333,41.1667 37.5,40.5C 41.9427,36.4533 45.276,31.62 47.5,26C 45.8659,25.5065 44.1992,25.3398 42.5,25.5C 42.3505,24.448 42.5172,23.448 43,22.5C 46.8389,18.8217 49.6722,14.4883 51.5,9.5 Z"/></g>
<g><path style="opacity:1" fill="#185c2a" d="M 51.5,12.5 C 53.934,15.8485 56.2673,19.3485 58.5,23C 57.451,23.4922 56.451,23.3256 55.5,22.5C 55.2341,29.4814 57.9008,35.3147 63.5,40C 61.5116,40.1805 59.5116,40.0138 57.5,39.5C 58.8948,48.0712 63.5615,54.2379 71.5,58C 67.5319,58.9418 63.5319,59.7751 59.5,60.5C 62.3576,68.0544 67.0243,74.2211 73.5,79C 67.4898,81.021 61.6564,80.521 56,77.5C 55.0093,78.4296 54.5093,79.5962 54.5,81C 55.748,85.8579 56.0814,90.6913 55.5,95.5C 52.9665,94.2117 50.4665,94.2117 48,95.5C 47.9188,90.4759 48.4188,85.4759 49.5,80.5C 49.4435,79.263 48.9435,78.263 48,77.5C 42.3436,80.521 36.5102,81.021 30.5,79C 36.832,74.1584 41.4986,67.9917 44.5,60.5C 40.4681,59.7751 36.4681,58.9418 32.5,58C 40.4385,54.2379 45.1052,48.0712 46.5,39.5C 44.4884,40.0138 42.4884,40.1805 40.5,40C 46.0992,35.3147 48.7659,29.4814 48.5,22.5C 47.549,23.3256 46.549,23.4922 45.5,23C 47.9031,19.6894 49.9031,16.1894 51.5,12.5 Z"/></g>
<g><path style="opacity:1" fill="#1c120c" d="M 69.5,136.5 C 70.0431,136.44 70.3764,136.107 70.5,135.5C 67.5719,134.516 64.5719,134.183 61.5,134.5C 59.076,134.808 56.7427,134.474 54.5,133.5C 56.7078,129.583 59.0411,125.75 61.5,122C 68.5231,121.603 75.5231,121.603 82.5,122C 87.6483,115.186 93.1483,108.686 99,102.5C 102.021,103.747 104.521,105.58 106.5,108C 103.756,112.82 100.756,117.487 97.5,122C 102.47,123.081 107.47,123.414 112.5,123C 112.167,122.667 111.833,122.333 111.5,122C 115.353,117.616 117.353,112.449 117.5,106.5C 113.955,88.9822 116.789,72.6489 126,57.5C 131.502,50.667 138.336,45.667 146.5,42.5C 150.081,44.1628 150.414,46.3295 147.5,49C 135.541,54.5905 128.707,63.7572 127,76.5C 135.024,66.236 145.524,60.236 158.5,58.5C 158.785,60.288 158.452,61.9547 157.5,63.5C 129.422,76.008 121.755,96.3413 134.5,124.5C 139.214,124.173 143.88,124.507 148.5,125.5C 149.996,129.19 149.663,132.69 147.5,136C 139.497,136.786 131.497,137.619 123.5,138.5C 113.247,136.694 102.913,135.694 92.5,135.5C 92.7248,143.897 97.0582,148.73 105.5,150C 103.773,153.393 101.106,155.726 97.5,157C 92.7164,159.021 87.7164,160.187 82.5,160.5C 71.0828,160.109 59.7494,159.109 48.5,157.5C 56.5211,151.479 63.5211,144.479 69.5,136.5 Z"/></g>
<g><path style="opacity:1" fill="#e0a01d" d="M 145.5,44.5 C 147.225,44.8425 147.725,45.8425 147,47.5C 132.631,53.9971 125.464,64.9971 125.5,80.5C 133.307,70.3588 143.307,63.3588 155.5,59.5C 156.308,59.8076 156.975,60.3076 157.5,61C 151.199,64.1516 145.199,67.8183 139.5,72C 126.649,85.6537 123.983,101.154 131.5,118.5C 126.5,119.833 121.5,119.833 116.5,118.5C 117.098,117.205 117.598,115.872 118,114.5C 118.333,102.5 118.667,90.5 119,78.5C 121.866,62.3981 130.7,51.0648 145.5,44.5 Z"/></g>
<g><path style="opacity:1" fill="#3f2119" d="M 107.5,61.5 C 104.571,65.6061 101.404,69.6061 98,73.5C 97.1841,74.8228 96.0174,75.4894 94.5,75.5C 98.1266,70.2056 102.46,65.539 107.5,61.5 Z"/></g>
<g><path style="opacity:1" fill="#3c211a" d="M 94.5,75.5 C 91.2365,79.94 87.7365,84.2733 84,88.5C 83.1841,89.8228 82.0174,90.4894 80.5,90.5C 84.4608,84.8714 89.1275,79.8714 94.5,75.5 Z"/></g>
<g><path style="opacity:1" fill="#2f1e18" d="M 80.5,90.5 C 77.8991,94.7706 74.5658,98.4372 70.5,101.5C 73.1009,97.2294 76.4342,93.5628 80.5,90.5 Z"/></g>
<g><path style="opacity:1" fill="#e0a01d" d="M 98.5,104.5 C 101.168,104.834 103.168,106.167 104.5,108.5C 101.667,112.833 98.8333,117.167 96,121.5C 92.2564,122.626 88.423,122.793 84.5,122C 89.2952,116.227 93.9619,110.394 98.5,104.5 Z"/></g>
<g><path style="opacity:1" fill="#402219" d="M 66.5,105.5 C 63.5711,109.606 60.4044,113.606 57,117.5C 56.1841,118.823 55.0174,119.489 53.5,119.5C 57.1266,114.206 61.46,109.539 66.5,105.5 Z"/></g>
<g><path style="opacity:1" fill="#fdfdfd" d="M -0.5,117.5 C 6.95561,158.289 30.9556,182.955 71.5,191.5C 47.5,191.5 23.5,191.5 -0.5,191.5C -0.5,166.833 -0.5,142.167 -0.5,117.5 Z"/></g>
<g><path style="opacity:1" fill="#fdfdfd" d="M 165.5,119.5 C 165.5,143.5 165.5,167.5 165.5,191.5C 141.167,191.5 116.833,191.5 92.5,191.5C 132.734,183.599 157.067,159.599 165.5,119.5 Z"/></g>
<g><path style="opacity:1" fill="#e2a21d" d="M 113.5,122.5 C 119.979,121.509 126.646,121.176 133.5,121.5C 133.742,126.496 133.075,131.329 131.5,136C 125.843,136.499 120.176,136.666 114.5,136.5C 113.85,132.393 114.85,128.893 117.5,126C 116.552,125.517 115.552,125.351 114.5,125.5C 114.737,124.209 114.404,123.209 113.5,122.5 Z"/></g>
<g><path style="opacity:1" fill="#dfa01d" d="M 62.5,123.5 C 78.8364,123.833 95.1697,124.333 111.5,125C 113.076,127.951 113.743,131.117 113.5,134.5C 94.5014,134.027 75.5014,133.527 56.5,133C 58.6358,129.89 60.6358,126.723 62.5,123.5 Z"/></g>
<g><path style="opacity:1" fill="#120e09" d="M 85.5,125.5 C 88.0838,126.048 89.0838,127.715 88.5,130.5C 87.1667,130.5 85.8333,130.5 84.5,130.5C 84.366,128.708 84.6993,127.042 85.5,125.5 Z"/></g>
<g><path style="opacity:1" fill="#d89b1e" d="M 134.5,125.5 C 138.819,126.035 143.152,126.535 147.5,127C 148.729,129.619 148.396,132.119 146.5,134.5C 137.182,138.194 133.182,135.194 134.5,125.5 Z"/></g>
<g><path style="opacity:1" fill="#3c211a" d="M 53.5,119.5 C 50.2365,123.94 46.7365,128.273 43,132.5C 42.1841,133.823 41.0174,134.489 39.5,134.5C 43.4608,128.871 48.1275,123.871 53.5,119.5 Z"/></g>
<g><path style="opacity:1" fill="#6c2318" d="M 61.5,134.5 C 64.5719,134.183 67.5719,134.516 70.5,135.5C 70.3764,136.107 70.0431,136.44 69.5,136.5C 66.8333,135.833 64.1667,135.167 61.5,134.5 Z"/></g>
<g><path style="opacity:1" fill="#e4a31c" d="M 72.5,135.5 C 78.8333,135.5 85.1667,135.5 91.5,135.5C 90.5901,143.83 94.2568,148.997 102.5,151C 96.2763,156.561 88.943,159.061 80.5,158.5C 70.8376,157.921 61.1709,157.421 51.5,157C 59.3732,150.627 66.3732,143.461 72.5,135.5 Z"/></g>
<g><path style="opacity:1" fill="#2f1e18" d="M 39.5,134.5 C 36.8991,138.771 33.5658,142.437 29.5,145.5C 32.1009,141.229 35.4342,137.563 39.5,134.5 Z"/></g>
</svg>

<svg xmlns="http://www.w3.org/2000/svg" width="166" height="192" style="shape-rendering:geometricPrecision;text-rendering:geometricPrecision;image-rendering:optimizeQuality;fill-rule:evenodd;clip-rule:evenodd"><path style="opacity:1" fill="#0e0c0a" d="M-.5-.5h166v120c-8.433 40.099-32.766 64.099-73 72h-21c-40.544-8.545-64.544-33.211-72-74V-.5z"/><path style="opacity:1" fill="#fefdfd" d="M160.5 4.5c-3.403 2.4-6.07 5.4-8 9-1.667 1-3 2.333-4 4a64.74 64.74 0 0 0-13 14 74.602 74.602 0 0 0-14 15c-4.066 3.063-7.399 6.73-10 11-1.667 1-3 2.333-4 4a64.73 64.73 0 0 0-13 14 74.61 74.61 0 0 0-14 15c-4.066 3.063-7.4 6.73-10 11-1.667 1-3 2.333-4 4a64.738 64.738 0 0 0-13 14 74.59 74.59 0 0 0-14 15c-4.066 3.063-7.4 6.729-10 11-1.667 1-3 2.333-4 4a54.538 54.538 0 0 0-6.5 6c-7.09-9.183-11.756-19.516-14-31a2544.787 2544.787 0 0 1-1.5-121c52.503-.332 104.836.001 157 1z"/><path style="opacity:1" fill="#301711" d="M160.5 4.5c1.333 17.654 2 35.654 2 54 0 18.17-.333 36.17-1 54 .167-35.668 0-71.335-.5-107a95.282 95.282 0 0 1-8.5 8c1.93-3.6 4.597-6.6 8-9z"/><path style="opacity:1" fill="#d63023" d="M161.5 112.5c-3.089 35.586-21.422 59.419-55 71.5-31.14 8.59-58.306 1.757-81.5-20.5a1660.287 1660.287 0 0 1-4.5-6.5 53.15 53.15 0 0 0 5-7.5c1-1.667 2.333-3 4-4 4.066-3.063 7.4-6.729 10-11 1.517-.011 2.684-.677 3.5-2a185.586 185.586 0 0 0 10.5-13c1.517-.011 2.684-.677 3.5-2a154.892 154.892 0 0 0 9.5-12c1-1.667 2.333-3 4-4 4.066-3.063 7.4-6.73 10-11 1.517-.01 2.684-.677 3.5-2a185.516 185.516 0 0 0 10.5-13c1.517-.01 2.684-.677 3.5-2a154.974 154.974 0 0 0 9.5-12c1-1.667 2.333-3 4-4 4.066-3.063 7.399-6.73 10-11 1.517-.01 2.684-.677 3.5-2a185.23 185.23 0 0 0 10.5-13c1.517-.01 2.684-.677 3.5-2a154.974 154.974 0 0 0 9.5-12c1-1.667 2.333-3 4-4a95.282 95.282 0 0 0 8.5-8c.5 35.665.667 71.332.5 107z"/><path style="opacity:1" fill="#3f2119" d="M148.5 17.5a154.974 154.974 0 0 1-9.5 12c-.816 1.323-1.983 1.99-3.5 2a64.74 64.74 0 0 1 13-14z"/><path style="opacity:1" fill="#3d231c" d="M135.5 31.5a185.23 185.23 0 0 1-10.5 13c-.816 1.323-1.983 1.99-3.5 2a74.602 74.602 0 0 1 14-15z"/><path style="opacity:1" fill="#2f1e18" d="M121.5 46.5c-2.601 4.27-5.934 7.937-10 11 2.601-4.27 5.934-7.937 10-11z"/><path style="opacity:1" fill="#161613" d="M51.5 9.5a74.526 74.526 0 0 0 9.5 13c.483.948.65 1.948.5 3-1.946-.307-3.612-.307-5 0 2.094 5.864 5.428 10.864 10 15l-7 2c3.646 6.645 8.646 11.978 15 16a112.096 112.096 0 0 1-12 4c3.216 6.88 7.883 12.547 14 17-2.855 1.841-6.022 2.841-9.5 3a239.394 239.394 0 0 1-10.5-2c.47 4.52 1.137 9.02 2 13.5l-1 3.5a103.95 103.95 0 0 0-13-1 67.388 67.388 0 0 0 3-16l-11 2c-3.299-.238-6.299-1.238-9-3 6.117-4.453 10.784-10.12 14-17a112.096 112.096 0 0 1-12-4c6.354-4.022 11.354-9.355 15-16l-7-2c4.443-4.047 7.776-8.88 10-14.5-1.634-.494-3.3-.66-5-.5a4.932 4.932 0 0 1 .5-3 33.955 33.955 0 0 0 8.5-13z"/><path style="opacity:1" fill="#185c2a" d="M51.5 12.5a158.242 158.242 0 0 1 7 10.5c-1.049.492-2.049.326-3-.5-.266 6.981 2.4 12.815 8 17.5a17.64 17.64 0 0 1-6-.5c1.395 8.571 6.062 14.738 14 18.5a222.286 222.286 0 0 1-12 2.5c2.858 7.554 7.524 13.721 14 18.5-6.01 2.021-11.844 1.521-17.5-1.5-.99.93-1.49 2.096-1.5 3.5 1.248 4.858 1.581 9.691 1 14.5-2.533-1.288-5.033-1.288-7.5 0a65.439 65.439 0 0 1 1.5-15c-.056-1.237-.556-2.237-1.5-3-5.656 3.021-11.49 3.521-17.5 1.5 6.332-4.842 10.999-11.008 14-18.5a222.286 222.286 0 0 1-12-2.5c7.938-3.762 12.605-9.929 14-18.5a17.64 17.64 0 0 1-6 .5c5.6-4.685 8.266-10.519 8-17.5-.951.826-1.951.992-3 .5a55.07 55.07 0 0 0 6-10.5z"/><path style="opacity:1" fill="#1c120c" d="M69.5 136.5c.543-.06.876-.393 1-1a21.128 21.128 0 0 0-9-1 13.115 13.115 0 0 1-7-1 200.563 200.563 0 0 1 7-11.5 185.287 185.287 0 0 1 21 0A230.917 230.917 0 0 1 99 102.5c3.021 1.247 5.521 3.08 7.5 5.5a154.853 154.853 0 0 1-9 14 50.648 50.648 0 0 0 15 1l-1-1c3.853-4.384 5.853-9.551 6-15.5-3.545-17.518-.711-33.851 8.5-49 5.502-6.833 12.336-11.833 20.5-15 3.581 1.663 3.914 3.83 1 6.5-11.959 5.59-18.793 14.757-20.5 27.5 8.024-10.264 18.524-16.264 31.5-18 .285 1.788-.048 3.455-1 5-28.078 12.508-35.745 32.841-23 61a49.87 49.87 0 0 1 14 1c1.496 3.69 1.163 7.19-1 10.5a2040.63 2040.63 0 0 0-24 2.5 199.903 199.903 0 0 0-31-3c.225 8.397 4.558 13.23 13 14.5-1.727 3.393-4.394 5.726-8 7a45.221 45.221 0 0 1-15 3.5 316.453 316.453 0 0 1-34-3 104.47 104.47 0 0 0 21-21z"/><path style="opacity:1" fill="#e0a01d" d="M145.5 44.5c1.725.343 2.225 1.343 1.5 3-14.369 6.497-21.536 17.497-21.5 33 7.807-10.141 17.807-17.141 30-21a4.451 4.451 0 0 1 2 1.5 124.573 124.573 0 0 0-18 11c-12.851 13.654-15.517 29.154-8 46.5-5 1.333-10 1.333-15 0a28.931 28.931 0 0 0 1.5-4l1-36c2.866-16.102 11.7-27.435 26.5-34z"/><path style="opacity:1" fill="#3f2119" d="M107.5 61.5a154.974 154.974 0 0 1-9.5 12c-.816 1.323-1.983 1.99-3.5 2a64.73 64.73 0 0 1 13-14z"/><path style="opacity:1" fill="#3c211a" d="M94.5 75.5a185.516 185.516 0 0 1-10.5 13c-.816 1.323-1.983 1.99-3.5 2a74.61 74.61 0 0 1 14-15z"/><path style="opacity:1" fill="#2f1e18" d="M80.5 90.5c-2.6 4.27-5.934 7.937-10 11 2.6-4.27 5.934-7.937 10-11z"/><path style="opacity:1" fill="#e0a01d" d="M98.5 104.5c2.668.334 4.668 1.667 6 4l-8.5 13c-3.744 1.126-7.577 1.293-11.5.5a605.864 605.864 0 0 0 14-17.5z"/><path style="opacity:1" fill="#402219" d="M66.5 105.5a154.892 154.892 0 0 1-9.5 12c-.816 1.323-1.983 1.989-3.5 2a64.738 64.738 0 0 1 13-14z"/><path style="opacity:1" fill="#fdfdfd" d="M-.5 117.5c7.456 40.789 31.456 65.455 72 74h-72v-74zM165.5 119.5v72h-73c40.234-7.901 64.567-31.901 73-72z"/><path style="opacity:1" fill="#e2a21d" d="M113.5 122.5c6.479-.991 13.146-1.324 20-1 .242 4.996-.425 9.829-2 14.5-5.657.499-11.324.666-17 .5-.65-4.107.35-7.607 3-10.5a4.934 4.934 0 0 0-3-.5c.237-1.291-.096-2.291-1-3z"/><path style="opacity:1" fill="#dfa01d" d="M62.5 123.5c16.336.333 32.67.833 49 1.5 1.576 2.951 2.243 6.117 2 9.5-18.999-.473-37.999-.973-57-1.5a145.18 145.18 0 0 0 6-9.5z"/><path style="opacity:1" fill="#120e09" d="M85.5 125.5c2.584.548 3.584 2.215 3 5h-4c-.134-1.792.2-3.458 1-5z"/><path style="opacity:1" fill="#d89b1e" d="M134.5 125.5a783.45 783.45 0 0 0 13 1.5c1.229 2.619.896 5.119-1 7.5-9.318 3.694-13.318.694-12-9z"/><path style="opacity:1" fill="#3c211a" d="M53.5 119.5a185.586 185.586 0 0 1-10.5 13c-.816 1.323-1.983 1.989-3.5 2a74.59 74.59 0 0 1 14-15z"/><path style="opacity:1" fill="#6c2318" d="M61.5 134.5a21.128 21.128 0 0 1 9 1c-.124.607-.457.94-1 1l-8-2z"/><path style="opacity:1" fill="#e4a31c" d="M72.5 135.5h19c-.91 8.33 2.757 13.497 11 15.5-6.224 5.561-13.557 8.061-22 7.5-9.662-.579-19.33-1.079-29-1.5a128.077 128.077 0 0 0 21-21.5z"/><path style="opacity:1" fill="#2f1e18" d="M39.5 134.5c-2.6 4.271-5.934 7.937-10 11 2.6-4.271 5.934-7.937 10-11z"/></svg>
